packages/astro-components-stencil/src/icons/wrap-text.svg

<svg xmlns="http://www.w3.org/2000/svg" viewBox="0 0 24 24"><g xmlns="http://www.w3.org/2000/svg" id="wrap-text" fill-rule="nonzero">
            <path d="M5 7h14c.55 0 1-.45 1-1s-.45-1-1-1H5c-.55 0-1 .45-1 1s.45 1 1 1zm11.83 4H5c-.55 0-1 .45-1 1s.45 1 1 1h12.13c1 0 1.93.67 2.09 1.66.21 1.25-.76 2.34-1.97 2.34H15v-.79c0-.45-.54-.67-.85-.35l-1.79 1.79c-.2.2-.2.51 0 .71l1.79 1.79c.32.32.85.09.85-.35V19h2c2.34 0 4.21-2.01 3.98-4.39-.2-2.08-2.06-3.61-4.15-3.61zM9 17H5c-.55 0-1 .45-1 1s.45 1 1 1h4c.55 0 1-.45 1-1s-.45-1-1-1z"/>
        </g></svg>

<svg width="24" height="24" viewBox="0 0 24 24" fill="none" xmlns="http://www.w3.org/2000/svg">
<path fill-rule="evenodd" clip-rule="evenodd" d="M5 7H19C19.55 7 20 6.55 20 6C20 5.45 19.55 5 19 5H5C4.45 5 4 5.45 4 6C4 6.55 4.45 7 5 7ZM16.83 11H5C4.45 11 4 11.45 4 12C4 12.55 4.45 13 5 13H17.13C18.13 13 19.06 13.67 19.22 14.66C19.43 15.91 18.46 17 17.25 17H15V16.21C15 15.76 14.46 15.54 14.15 15.86L12.36 17.65C12.16 17.85 12.16 18.16 12.36 18.36L14.15 20.15C14.47 20.47 15 20.24 15 19.8V19H17C19.34 19 21.21 16.99 20.98 14.61C20.78 12.53 18.92 11 16.83 11ZM5 17H9C9.55 17 10 17.45 10 18C10 18.55 9.55 19 9 19H5C4.45 19 4 18.55 4 18C4 17.45 4.45 17 5 17Z" fill="black"/>
</svg>
